X: 210
T: Bak Şu Güzel Köylüye
C: Danbeni Rıza Bey
O: Turkey
F: http://compmusic.upf.edu/node/140
N: huseyni--sarki--curcuna--bak_su--danbeni_riza_bey
N: makam= huseyni
N: form= sarki
N: usul= curcuna = 10/8
M: 10/8
L: 1/16
K: C _2/4B ^3/4f  
Q: 1/4=192
%%MIDI tuningsystem comma53
d6e4e4e4c2  | d4 c2c2 B2B2 A2A6  | d6e4f4a4g2  | \
w:  Bak  şu  gü zel   |  köy *  lü *  ye   |  iş te  bu  kız  | 
g4 f2f2 e2e8-e2  | 
w:  dır  *  pe *  ri    | 
e4 =f2e2 d2c2 B2A6  | d6e4e4e4c2  | d4 c2c2 B2B2 A2A6  | \
w:  SAZ  |  Bak  şu  gü zel   |  köy *  lü *  ye   | 
d6e4f4a4g2  | 
w:  iş te  bu  kız  | 
g4 f2f2 e2e8-e2  | z4 g2f2 e2f2 g2a6  | \
w:  dır  *  pe *  ri    |  SAZ  | 
g6a4a4a4e2  | e4 f2g2 a2a2 g2=f2 e2d2  | 
w:  Top rak  i le   |  oy *  na *  mış   | 
a4 g2g2 =f2f2 e2e4d2  | d4 e2e2 d2c2 B2c6  | \
w:  bel *  li  *  gü *  zel   |  el *  le *  ri    | 
z4 =f2e2 d2c2 B2c6  | 
w:  SAZ  | 
d6e4e4e4c2  | d4 c2c2 B2B2 A2A6  | g6a4a2 g2=f2 e2d2  | \
w:  Top rak  i le   |  oy *  na *  mış   |  bel li  gü *  zel   | 
c4 B2B2 A2A8-A2  | 
w:  el *  le *  ri    | 
c6c4B2 d2c6  | G6c4c4c6  | d6e4e4z6  | c6_3/4d4d2 c2c4B2  | \
w:  SAZ  |  Böy le  mi dir   |  hep  a cep   |  köy lü le *  rin   | 
A6B4_3/4d2 c2B2 A2G2  | 
w:  dil be ri    | 
G6c4c4c4z2  | d6e4e4z6  | d6e4f4a4g2  | \
w:  Böy le  mi dir   |  hep  a cep   |  köy lü le rin   | 
g4 f2f2 e2e8-e2  | z4 g2f2 e2f2 g2a2 z4  | 
w:  dil *  be *  ri    |  SAZ  | 
g6a4a4a4e2  | e4 f2g2 a2a2 g2=f2 e2d2  | \
w:  Top rak  i le   |  oy *  na *  mış   | 
a4 g2g2 =f2f2 e2e4d2  | 
w:  bel *  li  *  gü *  zel   | 
d4 e2e2 d2c2 B2c6  | z4 =f2e2 d2c2 B2c6  | \
w:  el *  le *  ri    |  SAZ  | 
d6e4e4e4c2  | d4 c2c2 B2B2 A2A6  | 
w:  Top rak  i le   |  oy *  na *  mış   | 
g6a4a2 g2=f2 e2d2  | c4 B2B2 A2A8-A2  | |


